packages/crayons-icon/icons/company.svg

<?xml version="1.0" encoding="UTF-8"?>
<svg width="14px" height="14px" viewBox="0 0 14 14" version="1.1" xmlns="http://www.w3.org/2000/svg" xmlns:xlink="http://www.w3.org/1999/xlink">
    <!-- Generator: Sketch 52.6 (67491) - http://www.bohemiancoding.com/sketch -->
    <title>icon/company</title>
    <desc>Created with Sketch.</desc>
    <g id="Icons-✅" stroke="none" stroke-width="1" fill="none" fill-rule="evenodd">
        <g id="Icons" transform="translate(-819.000000, -2257.000000)" fill="currentColor">
            <g id="icon/company" transform="translate(819.000000, 2257.000000)">
                <g id="company">
                    <path d="M11.9,1.75 L10.46,1.75 C10.2937039,0.741381798 9.42223479,0.0010561044 8.4,0 L5.6,0 C4.57776521,0.0010561044 3.70629611,0.741381798 3.54,1.75 L2.1,1.75 C0.942476602,1.75547302 0.00547301549,2.6924766 2.04321288e-17,3.85 L2.04321288e-17,6.65 C-0.00210352612,7.24365017 0.253243263,7.80906092 0.7,8.2 L0.7,11.2 C0.7,11.9426062 0.994999153,12.6547971 1.52010101,13.179899 C2.04520287,13.7050008 2.75739383,14 3.5,14 L10.5,14 C11.2426062,14 11.9547971,13.7050008 12.479899,13.179899 C13.0050008,12.6547971 13.3,11.9426062 13.3,11.2 L13.3,8.2 C13.7467567,7.80906092 14.0021035,7.24365017 14,6.65 L14,3.85 C13.994527,2.6924766 13.0575234,1.75547302 11.9,1.75 Z M5.6,1.4 L8.4,1.4 C8.6448385,1.40371254 8.86936922,1.53690873 8.99,1.75 L5,1.75 C5.12241139,1.53382983 5.35157684,1.40014999 5.6,1.4 Z M1.4,3.85 C1.4,3.46340068 1.71340068,3.15 2.1,3.15 L11.9,3.15 C12.2865993,3.15 12.6,3.46340068 12.6,3.85 L12.6,6.65 C12.6034866,6.90199286 12.469311,7.13584184 12.25,7.26 C12.1427204,7.31886016 12.0223658,7.34980847 11.9,7.35 L9,7.35 C8.70741676,6.73307847 8.08274684,6.34265977 7.4,6.35 L6.7,6.35 C6.01725316,6.34265977 5.39258324,6.73307847 5.1,7.35 L2.1,7.35 C1.97763416,7.34980847 1.85727962,7.31886016 1.75,7.26 C1.53068901,7.13584184 1.39651337,6.90199286 1.4,6.65 L1.4,3.85 Z M7.7,8.05 C7.70007524,8.24498185 7.54490662,8.40458385 7.35,8.41 L6.65,8.41 C6.45509338,8.40458385 6.29992476,8.24498185 6.3,8.05 C6.30541315,7.86061651 6.46053918,7.70992265 6.65,7.71 L7.35,7.71 C7.53946082,7.70992265 7.69458685,7.86061651 7.7,8.05 Z M10.5,12.6 L3.5,12.6 C2.72680135,12.6 2.1,11.9731986 2.1,11.2 L2.1,8.75 L5.05,8.75 C5.32473518,9.39036485 5.95319601,9.80672014 6.65,9.81 L7.35,9.81 C8.06491759,9.82698285 8.71824037,9.40727246 9,8.75 L12.0000046,8.75 L12,11.2 C12.0009945,11.5892968 11.8398485,11.9614285 11.5552501,12.2270537 C11.2706517,12.4926788 10.8883036,12.6278083 10.5,12.6 Z" id="Shape"></path>
                </g>
            </g>
        </g>
    </g>
</svg>

<svg viewBox="0 0 14 14"><path d="M11.9 1.75h-1.44A2.09 2.09 0 0 0 8.4 0H5.6a2.09 2.09 0 0 0-2.06 1.75H2.1A2.11 2.11 0 0 0 0 3.85v2.8A2.05 2.05 0 0 0 .7 8.2v3A2.8 2.8 0 0 0 3.5 14h7a2.8 2.8 0 0 0 2.8-2.8v-3a2.05 2.05 0 0 0 .7-1.55v-2.8a2.11 2.11 0 0 0-2.1-2.1zM5.6 1.4h2.8a.69.69 0 0 1 .59.35H5a.69.69 0 0 1 .6-.35zM1.4 3.85a.7.7 0 0 1 .7-.7h9.8a.7.7 0 0 1 .7.7v2.8a.69.69 0 0 1-.7.7H9a1.75 1.75 0 0 0-1.6-1h-.7a1.75 1.75 0 0 0-1.6 1h-3a.69.69 0 0 1-.7-.7v-2.8zm6.3 4.2a.36.36 0 0 1-.35.36h-.7a.36.36 0 0 1-.35-.36.35.35 0 0 1 .35-.34h.7c.19 0 .345.15.35.34zm2.8 4.55h-7a1.4 1.4 0 0 1-1.4-1.4V8.75h2.95a1.75 1.75 0 0 0 1.6 1.06h.7A1.75 1.75 0 0 0 9 8.75h3v2.45a1.4 1.4 0 0 1-1.5 1.4z" fill="currentColor" fill-rule="evenodd"/></svg>
